X: 3268
T: Matrosen
B:[[Notböcker/Melodier til gamle danske Almuedanse for Violin solo]]
O:Danmark
Z:Søren Bak Vestergaard
M: 2/4
L: 1/8
K: C
(g/f/)|egeg|ccc (B/c/)|dg g/a/g/f/|ecc (g/f/)|egeg|\
ccc (B/c/)|dd d/c/d/e/|c2 z:| |:(B/c/)|AAA (B/c/)|GGG (B/c/)|dd (e/d/c/d/)|\
ecc (!upbow!B/c/)|AAA (B/c/)|GGG (B/c/)|dd d/c/d/e/|c2 z:| |:G|[EG,][GG,][EG,][GG,]|\
ccc (B/c/)|ddd (c/d/)|ec cG|[EG,][GG,][EG,][GG,]|ccc (B/c/)|dd d/c/d/e/|c2 z:|
(:musicend:)
(:music:)
